X: 1724
T: the Pet of the House   #2
R: hornpipe, reel
%S: s:2 b:12(6+6)
B: O'Neill's 1850 #1724
Z: Bob Safranek, rjs@gsp.org
Z: A.LEE WORMAN
M: C|
L: 1/8
K: G
D2 |: G2G2 G>BA>c | B2B2 B>dc>e | d>gf>e [1,3 d>cB>A | G>Bd>^c e>d=c>A :|[2,4 (3ded (3cBA | G2B2 G2 :|
|: d>c | B>dG>d B>dG>d | c>eA>e c>eA>e |[1,3 B>dG>d B>dG>B | A>GFE De :|[2,4 G>gf>e (3ded (3cBA | G2B2 G2 :|
